assets/img/menu.svg

<svg enable-background="new 0 0 24 24" height="24" viewBox="0 0 24 24" width="24" xmlns="http://www.w3.org/2000/svg"><path d="m6 15h12c.553 0 1 .447 1 1v1c0 .553-.447 1-1 1h-12c-.553 0-1-.447-1-1v-1c0-.553.447-1 1-1zm-1-4v1c0 .553.447 1 1 1h12c.553 0 1-.447 1-1v-1c0-.553-.447-1-1-1h-12c-.553 0-1 .447-1 1zm0-5v1c0 .553.447 1 1 1h12c.553 0 1-.447 1-1v-1c0-.553-.447-1-1-1h-12c-.553 0-1 .447-1 1z" opacity=".75"/></svg>

<?xml version="1.0" encoding="iso-8859-1"?>
<!-- Generator: Adobe Illustrator 16.0.0, SVG Export Plug-In . SVG Version: 6.00 Build 0)  -->
<!DOCTYPE svg PUBLIC "-//W3C//DTD SVG 1.1//EN" "http://www.w3.org/Graphics/SVG/1.1/DTD/svg11.dtd">
<svg version="1.1" xmlns="http://www.w3.org/2000/svg" xmlns:xlink="http://www.w3.org/1999/xlink" x="0px" y="0px" width="24px"
	 height="24px" viewBox="0 0 24 24" style="enable-background:new 0 0 24 24;" xml:space="preserve">
<g id="Icons" style="opacity:0.75;">
	<path id="menu" d="M6,15h12c0.553,0,1,0.447,1,1v1c0,0.553-0.447,1-1,1H6c-0.553,0-1-0.447-1-1v-1C5,15.447,5.447,15,6,15z M5,11v1
		c0,0.553,0.447,1,1,1h12c0.553,0,1-0.447,1-1v-1c0-0.553-0.447-1-1-1H6C5.447,10,5,10.447,5,11z M5,6v1c0,0.553,0.447,1,1,1h12
		c0.553,0,1-0.447,1-1V6c0-0.553-0.447-1-1-1H6C5.447,5,5,5.447,5,6z"/>
</g>
<g id="Guides" style="display:none;">
</g>
</svg>
